src/components/stable/gux-icon/icons/cc-delivery.svg

<svg viewBox='0 0 32 25' xmlns='http://www.w3.org/2000/svg'>
  <path
    fill-rule='evenodd'
    clip-rule='evenodd'
    d='M1 0H20.3333C20.8856 0 21.3333 0.447715 21.3333 1L21.3333 4.16661H23.9623C24.7826 4.16661 25.5715 4.47425 26.1663 5.02599L29.9373 8.52456C30.5733 9.11454 30.9333 9.93358 30.9333 10.7902V12.4999L30.9333 12.5091V18.75H31C31.5523 18.75 32 19.1977 32 19.75V19.8333C32 20.3856 31.5523 20.8333 31 20.8333H28.7707C28.5054 23.1771 26.4707 25 24 25C21.5293 25 19.4946 23.1771 19.2293 20.8333H11.7041C11.4388 23.1771 9.40405 25 6.93335 25C4.46264 25 2.42792 23.1771 2.16264 20.8333H1C0.447715 20.8333 0 20.3879 0 19.8356V19.8333V19.7499V18.7921V12.4567V0.993297C0 0.441012 0.447715 0 1 0ZM21.3333 11.4584H28.8V10.7902C28.8 10.5046 28.68 10.2316 28.468 10.035L24.6969 6.53641C24.4987 6.35249 24.2357 6.24995 23.9623 6.24995H21.3333L21.3333 11.4584ZM9.60001 20.3124C9.60001 21.7506 8.4061 22.9166 6.93334 22.9166C5.46059 22.9166 4.26668 21.7506 4.26668 20.3124C4.26668 18.8742 5.46059 17.7082 6.93334 17.7082C8.4061 17.7082 9.60001 18.8742 9.60001 20.3124ZM24 22.9166C25.4728 22.9166 26.6667 21.7506 26.6667 20.3124C26.6667 18.8742 25.4728 17.7082 24 17.7082C22.5272 17.7082 21.3333 18.8742 21.3333 20.3124C21.3333 21.7506 22.5272 22.9166 24 22.9166Z'
  />
</svg>

<svg viewBox="0 0 32 25" xmlns="http://www.w3.org/2000/svg"><path fill-rule="evenodd" clip-rule="evenodd" d="M1 0h19.333a1 1 0 011 1v3.167h2.63c.82 0 1.608.307 2.203.859l3.771 3.499a3.09 3.09 0 01.996 2.265v7.96H31a1 1 0 011 1v.083a1 1 0 01-1 1h-2.23C28.506 23.177 26.47 25 24 25c-2.47 0-4.505-1.823-4.77-4.167h-7.526C11.44 23.177 9.404 25 6.934 25c-2.471 0-4.506-1.823-4.771-4.167H1c-.552 0-1-.445-1-.997V.993A.994.994 0 011 0zm20.333 11.458H28.8v-.668c0-.285-.12-.558-.332-.755l-3.771-3.499a1.08 1.08 0 00-.735-.286h-2.629v5.208zM9.6 20.312c0 1.439-1.194 2.605-2.667 2.605-1.472 0-2.666-1.166-2.666-2.605 0-1.438 1.194-2.604 2.666-2.604 1.473 0 2.667 1.166 2.667 2.604zM24 22.917c1.473 0 2.667-1.166 2.667-2.605 0-1.438-1.194-2.604-2.667-2.604-1.473 0-2.667 1.166-2.667 2.604 0 1.439 1.194 2.605 2.667 2.605z"/></svg>
